assets/ico-twitter.svg

<svg aria-hidden="true" width="30" height="25" viewBox="0 0 30 25" xmlns="http://www.w3.org/2000/svg">
	<path class="nav__list-img" d="M9.43441 25C20.7552 25 26.9472 15.3809 26.9472 7.03928C26.9472 6.7661 26.9472 6.49413 26.9292 6.22335C28.1338 5.32972 29.1737 4.22335 30 2.95589C28.8767 3.46637 27.685 3.80108 26.4648 3.94903C27.7494 3.16038 28.7115 1.91899 29.1708 0.457544C27.9626 1.19277 26.6407 1.71101 25.2624 1.98978C24.0986 0.720568 22.4732 0 20.7745 0C17.3947 0 14.6137 2.85223 14.6137 6.31835C14.6137 6.79921 14.6672 7.27857 14.7732 7.74693C9.82682 7.49268 5.21186 5.09319 2.08799 1.15167C0.463535 4.01964 1.30406 7.73636 3.99357 9.57819C3.01418 9.54844 2.05582 9.27742 1.2 8.78809V8.86808C1.20082 11.8615 3.27697 14.4633 6.13799 15.056C5.23189 15.3094 4.28098 15.3465 3.35883 15.1643C4.16314 17.7294 6.48252 19.4975 9.10922 19.5481C6.93012 21.3044 4.23674 22.2584 1.4652 22.2556C0.975469 22.2546 0.486211 22.2242 0 22.1645C2.81449 24.0168 6.09023 24.9996 9.43441 24.9951"/>
</svg>

<svg aria-hidden="true" width="30" height="25" xmlns="http://www.w3.org/2000/svg"><path class="nav__list-img" d="M9.434 25c11.321 0 17.513-9.62 17.513-17.96 0-.274 0-.546-.018-.817A12.69 12.69 0 0030 2.956c-1.123.51-2.315.845-3.535.993A6.31 6.31 0 0029.17.458a12.153 12.153 0 01-3.909 1.532A6.092 6.092 0 0020.774 0c-3.38 0-6.16 2.852-6.16 6.318 0 .481.053.96.16 1.429-4.947-.254-9.562-2.654-12.686-6.595C.464 4.02 1.304 7.736 3.994 9.578c-.98-.03-1.938-.3-2.794-.79v.08c0 2.993 2.077 5.595 4.938 6.188a5.997 5.997 0 01-2.78.108c.805 2.565 3.125 4.333 5.751 4.384a12.159 12.159 0 01-7.644 2.708c-.49-.001-.979-.032-1.465-.091a17.112 17.112 0 009.434 2.83"/></svg>
